public/assets/icons/svg/stat/creature.svg

<svg fill="none" height="24" viewBox="0 0 24 24" width="24" xmlns="http://www.w3.org/2000/svg"><g fill="#ffc107" stroke="#4f4f4f" stroke-miterlimit="7.6613" transform="matrix(.72470605 0 0 .72470605 -.646939 1.214208)"><path d="m10.9309 11.9791c.9264-.2165 1.6011-.9208 1.9713-1.8004.3704-.88023.456-1.97127.1991-3.07116-.257-1.09988-.8171-2.04006-1.5392-2.66506-.7216-.62456-1.63852-.95698-2.565-.74053-.92647.21645-1.60118.92071-1.97135 1.80034-.37042.88025-.45602 1.97128-.19906 3.07117.25697 1.09989.81712 2.04004 1.53921 2.66504.72159.6246 1.6385.957 2.565.7406z"/><path d="m5.74155 19.0275c.8845-.2066 1.5309-.8722 1.88706-1.7026.35626-.8306.44099-1.8583.19936-2.8925-.24163-1.0343-.77292-1.918-1.46033-2.5048-.68721-.5867-1.56161-.8969-2.4461-.6903-.8845.2066-1.5309.8722-1.88706 1.7026-.35626.8306-.44098 1.8583-.19936 2.8926.24163 1.0342.77292 1.918 1.46033 2.5047.68721.5867 1.56161.897 2.4461.6903z"/><path d="m28.6718 17.6121c.8561.3033 1.7595.0918 2.5075-.4151.7482-.507 1.3741-1.3264 1.7288-2.3275.3548-1.0011.3844-2.0319.1224-2.8968-.262-.8648-.8307-1.5979-1.6868-1.9013-.8562-.30332-1.7596-.09182-2.5075.4151-.7482.507-1.3742 1.3264-1.7289 2.3275s-.3844 2.0319-.1223 2.8969c.2619.8647.8306 1.5978 1.6868 1.9012z"/><path d="m24.0477 12.0838c.9286.1057 1.7802-.3409 2.4055-1.0458.6264-.7061 1.0618-1.70403 1.189-2.82274.1273-1.11871-.0729-2.18887-.5248-3.0177-.451-.82727-1.1806-1.45366-2.1092-1.55927s-1.7802.34095-2.4055 1.04581c-.6265.70619-1.0619 1.70407-1.1891 2.82278s.0729 2.18887.5248 3.01772c.4511.8272 1.1807 1.4536 2.1093 1.5592z"/><path d="m17.3197 9.57261c.9739.00439 1.8044-.56389 2.3713-1.37673.5683-.81487.9065-1.91536.9119-3.10851s-.3229-2.29665-.8838-3.11661c-.5596-.81792-1.3849-1.393666-2.3588-1.398057-.974-.004391-1.8045.563887-2.3714 1.376727-.5683.81488-.9065 1.91537-.9118 3.10852-.0054 1.19315.3228 2.29664.8838 3.11661.5595.81792 1.3849 1.39366 2.3588 1.39805z"/><path d="m23.6108 15.0698c-.3431-.8388-.925-1.8246-2.0002-2.6018-1.0771-.7786-2.6051-1.3159-4.7846-1.3339-1.192-.0099-2.5976.465-3.7849 1.1161-1.1754.6445-2.2572 1.5279-2.7082 2.4299-.1704.3408-.33528.7833-.50703 1.2444-.01807.0485-.03621.0972-.05445.146-.1966.5263-.41333 1.0932-.68261 1.6523-.54162 1.1245-1.26587 2.1521-2.37068 2.7045-1.60914.8046-2.67433 1.7364-3.14172 2.8321-.4788 1.1225-.28372 2.3016.36969 3.4739.34413.6174 1.12257 1.2246 1.95253 1.6675.8429.4499 1.85523.7925 2.74903.7925.45386 0 1.09055-.1187 1.78114-.2727.45-.1003.9501-.2223 1.4686-.3487.288-.0702.5817-.1418.8755-.2118 1.687-.4021 3.3831-.7513 4.5065-.6611 1.0585.085 2.2556.3378 3.343.584.1545.035.3072.0699.4569.1042.3709.0849.7234.1655 1.0386.232.4371.0922.8384.1652 1.1442.1824 1.3775.0776 4.4322-.3144 6.4939-3.6104.7047-1.1266 1.0276-2.0949 1.0521-2.9352.0249-.8532-.2594-1.5326-.6873-2.0623-.7357-.9105-1.9074-1.3741-2.5382-1.6236-.0717-.0284-.1363-.054-.1926-.0771-.5429-.2236-1.3513-.7241-2.1051-1.3665-.7595-.6473-1.399-1.3844-1.6741-2.0567z"/></g></svg>

<svg width="35" height="30" viewBox="0 0 35 30" fill="none" xmlns="http://www.w3.org/2000/svg">
<path d="M10.9309 11.9791C11.8573 11.7626 12.532 11.0583 12.9022 10.1787C13.2726 9.29847 13.3582 8.20743 13.1013 7.10754C12.8443 6.00766 12.2842 5.06748 11.5621 4.44248C10.8405 3.81792 9.92358 3.4855 8.9971 3.70195C8.07063 3.9184 7.39592 4.62266 7.02575 5.50229C6.65533 6.38254 6.56973 7.47357 6.82669 8.57346C7.08366 9.67335 7.64381 10.6135 8.3659 11.2385C9.08749 11.8631 10.0044 12.1955 10.9309 11.9791Z" fill="#FFC107" stroke="#4F4F4F" stroke-miterlimit="7.6613"/>
<path d="M5.74155 19.0275C6.62605 18.8209 7.27245 18.1553 7.62861 17.3249C7.98487 16.4943 8.0696 15.4666 7.82797 14.4324C7.58634 13.3981 7.05505 12.5144 6.36764 11.9276C5.68043 11.3409 4.80603 11.0307 3.92154 11.2373C3.03704 11.4439 2.39064 12.1095 2.03448 12.9399C1.67822 13.7705 1.5935 14.7982 1.83512 15.8325C2.07675 16.8667 2.60804 17.7505 3.29545 18.3372C3.98266 18.9239 4.85706 19.2342 5.74155 19.0275Z" fill="#FFC107" stroke="#4F4F4F" stroke-miterlimit="7.6613"/>
<path d="M28.6718 17.6121C29.5279 17.9154 30.4313 17.7039 31.1793 17.197C31.9275 16.69 32.5534 15.8706 32.9081 14.8695C33.2629 13.8684 33.2925 12.8376 33.0305 11.9727C32.7685 11.1079 32.1998 10.3748 31.3437 10.0714C30.4875 9.76808 29.5841 9.97958 28.8362 10.4865C28.088 10.9935 27.462 11.8129 27.1073 12.814C26.7526 13.8151 26.7229 14.8459 26.985 15.7109C27.2469 16.5756 27.8156 17.3087 28.6718 17.6121Z" fill="#FFC107" stroke="#4F4F4F" stroke-miterlimit="7.6613"/>
<path d="M24.0477 12.0838C24.9763 12.1895 25.8279 11.7429 26.4532 11.038C27.0796 10.3319 27.515 9.33397 27.6422 8.21526C27.7695 7.09655 27.5693 6.02639 27.1174 5.19756C26.6664 4.37029 25.9368 3.7439 25.0082 3.63829C24.0796 3.53268 23.228 3.97924 22.6027 4.6841C21.9762 5.39029 21.5408 6.38817 21.4136 7.50688C21.2864 8.62559 21.4865 9.69575 21.9384 10.5246C22.3895 11.3518 23.1191 11.9782 24.0477 12.0838Z" fill="#FFC107" stroke="#4F4F4F" stroke-miterlimit="7.6613"/>
<path d="M17.3197 9.57261C18.2936 9.577 19.1241 9.00872 19.691 8.19588C20.2593 7.38101 20.5975 6.28052 20.6029 5.08737C20.6083 3.89422 20.28 2.79072 19.7191 1.97076C19.1595 1.15284 18.3342 0.577094 17.3603 0.572703C16.3863 0.568312 15.5558 1.13659 14.9889 1.94943C14.4206 2.76431 14.0824 3.8648 14.0771 5.05795C14.0717 6.2511 14.3999 7.35459 14.9609 8.17456C15.5204 8.99248 16.3458 9.56822 17.3197 9.57261Z" fill="#FFC107" stroke="#4F4F4F" stroke-miterlimit="7.6613"/>
<path d="M23.6108 15.0698C23.2677 14.231 22.6858 13.2452 21.6106 12.468C20.5335 11.6894 19.0055 11.1521 16.826 11.1341C15.634 11.1242 14.2284 11.5991 13.0411 12.2502C11.8657 12.8947 10.7839 13.7781 10.3329 14.6801C10.1625 15.0209 9.99762 15.4634 9.82587 15.9245C9.8078 15.973 9.78966 16.0217 9.77142 16.0705C9.57482 16.5968 9.35809 17.1637 9.08881 17.7228C8.54719 18.8473 7.82294 19.8749 6.71813 20.4273C5.10899 21.2319 4.0438 22.1637 3.57641 23.2594C3.09761 24.3819 3.29269 25.561 3.9461 26.7333C4.29023 27.3507 5.06867 27.9579 5.89863 28.4008C6.74153 28.8507 7.75386 29.1933 8.64766 29.1933C9.10152 29.1933 9.73821 29.0746 10.4288 28.9206C10.8788 28.8203 11.3789 28.6983 11.8974 28.5719C12.1854 28.5017 12.4791 28.4301 12.7729 28.3601C14.4599 27.958 16.156 27.6088 17.2794 27.699C18.3379 27.784 19.535 28.0368 20.6224 28.283C20.7769 28.318 20.9296 28.3529 21.0793 28.3872C21.4502 28.4721 21.8027 28.5527 22.1179 28.6192C22.555 28.7114 22.9563 28.7844 23.2621 28.8016C24.6396 28.8792 27.6943 28.4872 29.756 25.1912C30.4607 24.0646 30.7836 23.0963 30.8081 22.256C30.833 21.4028 30.5487 20.7234 30.1208 20.1937C29.3851 19.2832 28.2134 18.8196 27.5826 18.5701C27.5109 18.5417 27.4463 18.5161 27.39 18.493C26.8471 18.2694 26.0387 17.7689 25.2849 17.1265C24.5254 16.4792 23.8859 15.7421 23.6108 15.0698Z" fill="#FFC107" stroke="#4F4F4F" stroke-miterlimit="7.6613"/>
</svg>
